X:1
T:Title
%%score { ( 1 4 5 ) | ( 2 3 ) }
L:1/8
Q:1/4=100
M:4/4
K:Ab
V:1 treble nm="Grand Piano"
V:4 treble 
V:5 treble 
V:2 treble 
V:3 treble 
V:1
 [GB]2 G>G A2 c2 | [GB]4 z4 | [EG]2 G>G F2 A2 | G3- G/F/ z4 | [GB]2 G>G A2 c2 | [GB]4 z4 | %6
w: arr.~from~Bellini * * * *||||||
 B,2- [B,-G]>[B,-G] [B,F]2 [=DB]2 | [G,E]6 z2 | [_CFG]2 [CFG]>[CFG] [CFA]3 [CFG] | %9
w: |||
 [CEG]4 [Ec]2 z2 | G2 G>G A3 G | [Ge]6[K:bass][K:treble] z2 | [=df]2 e>d [ce]2 d>c | %13
w: ||||
 [B=d]2 c>B [Ac]2 B>A | B2 A>G [B,FA]2 G>F | E6 z2 | z4 z2 E2 | e6 z2 | e3 d e2 c2 | e6 z2 | %20
w: |||||||
 (3dc-[Gc] (3BA-[FA] A2 z2 | e6 (3z A-[Ac] | e3 c e2 z2 | e6 z2 | [CEA]6 z2 | c2 d>c c2 d>c | %26
w: ||||||
 c2 f2 (3z Bc (3def | f4 A2 z2 | c6 z2 | c6 z2 | c2 d>c c2 d>c | c2 f2 (3z Bc (3def | f4 A2 z2 | %33
w: |||||||
 c6 z2 | [CEA]6 z2 | z4 z2 c2 | B4 G2 z G | [A,=DF]2 [A,DG]2 [A,DF]2 [A,DG]2 | [G,E]4 z2 [EB]2 | %39
w: ||||||
 z2 c2 z2 c2 | B4 G2 z2 | [A,=DF]2 [A,DG]>[A,DF] [A,DF]2 [A,DG]2 | [G,E]8 | [EG]4 [EB]3 [GB] | %44
w: |||||
 [Ge]8 |] %45
w: |
V:2
 z2 E>E F2 A2 | E2[K:bass] E,>E, E,2 E,2 | z2[K:treble] E>E =D2 F2 | E3- E/=D/ E2 z2 | %4
 z2 E>E F2 A2 | E2[K:bass] E,>E, E,2 E,2 | z2 E>E =D2 A,2 | E,6 z2 | =D,2 D,>D, D,3 D, | %9
 C,4 [C,G,]2 z2 | [G,_CF]2 [G,CF]>[G,CF] [G,CF]3 [G,CF] | C6- [C,C]2 | %12
 [B,,B,]2[K:treble] c>B[K:bass] [B,,B,]2[K:treble] B>A | [E,B,]2 A>G z2 G>F | %14
 [B,G]2 F>[K:bass]E B,,2 E>=D | [E,B,C]6 z2 | z8 | [CEA]2 [CE]2 [CE]2 .[CE]2 | %18
 [CEA]4 [CEA]2 [EA]2 | [EGB]2 [EG]2 [EG]2 [EG]2 | .[EAc]2 .[CFA]2 [CE]2 z2 | [CEA]4 E2 z2 | %22
 [CEG]4 [CAc]2 z2 | [E,B,E]2 [E,B,]>[E,B,] [E,B,]2 [E,DE]2 | A,,6 z2 | %25
 [A,C]2 [A,D]>[A,C] [G,B,C]2 [G,B,C]>[G,B,C] | [F,A,C]4 [D,B,]2 z2 | z8 | %28
 [E,A,C]2 [E,C]>[E,C] [E,D]2 [E,DE]2 | [A,CE]6 z2 | [A,C]2 [A,D]>[A,C] [G,B,C]2 [G,B,C]>[G,B,C] | %31
 [F,A,C]4 [D,B,]2 z2 | z8 | [E,A,C]2 [E,C]>[E,C] [E,D]2 [E,DE]2 | A,,6 z2 | %35
 [B,,A,]2 [B,,A,]>[B,,A,] [B,,A,]2 [B,,A,]2 | [E,G,E]4 [E,B,E]2 z [E,B,E] | %37
 B,,2 z z/ F/ B,,2 z z/ F/ | E,4 z2 [E,G,]2 | [B,,A,]2 [B,,A,]2 [B,,A,]2 [B,,A,]2 | %40
 [E,G,E]4 [E,B,E]2 z2 | B,,2 B,,>B,, B,,2 z z/ F/ | E,4 E,4 | B,4 z2 z E | [E,B,]8 |] %45
V:3
 E,8- | E,2[K:bass] z2 z4 | [B,,B,]8[K:treble] | [E,B,]6 z2 | E,8- | E,2[K:bass] z2 z4 | B,,8 | %7
 x8 | x8 | x8 | x8 | C,2 z2 z4 | x2[K:treble] x2[K:bass] x2[K:treble] x2 | z4 [E,E]4 | %14
 x7/2[K:bass] x9/2 | x8 | x8 | x8 | x8 | x8 | x8 | z4 C4 | x8 | x8 | x8 | x8 | x8 | x8 | x8 | x8 | %30
 x8 | x8 | x8 | x8 | x8 | x8 | x8 | z2 B,,2 z2 B,,2 | x8 | x8 | x8 | z4 z2 B,,2 | x8 | z4 G,4 | %44
 x8 |] %45
V:4
 x8 | z2 G,>[A,FA] [B,EG]2 G,2 | x8 | x8 | x8 | z2 G,>[A,FA] [A,EG]2 G,2 | [EG]2 z2 z4 | x8 | x8 | %9
 x8 | x8 | z2[K:bass] G,2 E,2[K:treble] e2 | x8 | x8 | x8 | x8 | x8 | z2 A2 (3A-[Ac]A (3AA-[Ac] | %18
 x8 | z2 B2 (3z dc (3Bcd | x8 | z4 (3A-[Ac]A- A2 | x8 | z2 E>E (3z dc (3BcB | x8 | x8 | z4 D2 z2 | %27
 x8 | z2 E>E (3z dc (3BcB | x8 | x8 | z4 D2 z2 | x8 | z2 E>E (3z dc (3BcB | x8 | %35
 [=DB]2 [Dc]>[DB] [DB]2 D->[DB] | x8 | x8 | x8 | [=DB]2 D->[DB] [DB]2 D->[DB] | x8 | x8 | x8 | x8 | %44
 x8 |] %45
V:5
 x8 | x8 | x8 | x8 | x8 | x8 | x8 | x8 | x8 | x8 | x8 | x2[K:bass] x4[K:treble] x2 | x8 | x8 | x8 | %15
 x8 | x8 | x8 | x8 | z4 B2 z2 | x8 | z4 z2 E2 | x8 | z4 E2 z2 | x8 | x8 | x8 | x8 | z4 E2 z2 | x8 | %30
 x8 | x8 | x8 | z4 E2 z2 | x8 | x8 | x8 | x8 | x8 | x8 | x8 | x8 | x8 | x8 | x8 |] %45

